X:673
T:Planxty Fanny Powers
C:O'Carolan
B:O'Neill's 673
Z: 1997 by John Chambers <jc@trillian.mit.edu>
N:"Lively"
M:6/8
L:1/8
K:A
A2E ABc|""d2c ""B2A|""G2F EFE|""G2A ""B2d|
|cBA cde|""f2B B2A|AGFE EFG|A3 A2z :|
||.ec/d/e .ec/d/e|.A2.A .A2.A|.fd/e/f .fd/e/f|.B2.B .B2.B|
|cde fga|gab efe|dcBA BcB|A3 A2z|]
